public/assets/betrangMini.svg

<svg width="337" height="191" viewBox="0 0 337 191" fill="none" xmlns="http://www.w3.org/2000/svg">
<path d="M161.867 203.763C160.644 203.231 144.661 190.936 136.823 184.855C136.744 187.26 136.394 193.867 135.631 201.051C139.274 207.177 153.298 212.346 159.855 214.165C161.035 210.919 163.091 204.294 161.867 203.763Z" fill="#F37A84"/>
<path d="M136.183 193.558C134.819 175.14 139.878 168.357 142.151 167.125C159.394 164.377 194.733 159.906 198.144 163.999C202.407 169.115 205.534 190.147 203.26 195.832C200.986 201.516 185.638 207.769 178.532 210.896C171.427 214.022 150.394 200.095 136.183 193.558Z" fill="#C4535D"/>
<path d="M203.606 184.86C203.035 187.375 189.933 198.597 183.453 203.893L182.863 213.526C189.243 212.302 202.15 209.402 202.741 207.598C203.481 205.343 204.32 181.716 203.606 184.86Z" fill="#F37A84"/>
<path d="M203.546 194.126C201.84 199.811 200.508 211.088 199.221 218.767L221.736 252.29C227.455 251.36 234.682 241.126 230.979 232.861C226.349 222.531 203.416 193.138 203.546 194.126Z" fill="#DB5E68"/>
<path d="M114.223 68.1957C119.508 62.4119 130.003 63.5578 134.589 64.8537C157.907 65.5357 205.701 66.1223 210.333 63.0121C216.123 59.1244 237.579 54.1454 235.195 65.8085C233.288 75.139 222.821 77.6535 217.826 77.7445L215.169 80.6773C190.148 82.2233 137.423 85.1788 126.688 84.6332C113.269 83.9511 107.615 75.4255 114.223 68.1957Z" fill="#C4535D"/>
<path d="M132.307 64.2931C134.115 50.8808 129.772 22.3912 127.375 9.82286C147.307 -2.15238 205.8 -1.19436 216.622 2.364C206.622 30.694 213.06 62.0349 214.635 69.1516C211.759 75.105 195.8 75.584 183.197 72.9153C170.594 70.2465 138.882 66.2776 132.307 64.2931Z" fill="#F37A84"/>
<path d="M152.866 74.3573C132.263 71.7542 127.623 80.9335 126.805 84.1532C126.805 100.114 126.805 120.391 132.604 151.491C138.403 182.591 171.49 178.824 178.858 177.796C186.226 176.769 204.237 170.056 211.809 149.916C219.382 129.776 219.518 84.1532 218.359 77.1659C214.197 77.9879 173.469 76.9604 152.866 74.3573Z" fill="#FFC9BA"/>
<path fill-rule="evenodd" clip-rule="evenodd" d="M127.297 109.007C128.533 105.211 130.437 101.156 132.985 99.5722C138.035 96.4328 146.593 90.8773 154.482 82.9883C157.606 79.8643 159.374 77.3852 160.078 75.4381C157.482 75.197 155.048 74.9376 152.844 74.6603C132.233 72.0669 127.592 81.2119 126.773 84.4195C126.773 91.5544 126.773 99.555 127.297 109.007Z" fill="#292929"/>
<path fill-rule="evenodd" clip-rule="evenodd" d="M194.838 77.6498C192.335 80.4251 191.718 87.9095 199.252 92.0043C200.839 92.8667 202.24 93.6051 203.485 94.2612C209.628 97.4997 211.973 98.7359 214.13 102.992C215.322 105.345 216.977 106.564 218.45 107.14C219.177 93.0808 218.919 80.8159 218.36 77.4658C216.453 77.8411 206.862 77.8294 195.048 77.457C194.966 77.5206 194.896 77.5849 194.838 77.6498Z" fill="#292929"/>
<path d="M217.885 140.462C201.922 136.099 187.271 140.28 181.941 142.915C205.448 151.98 221.643 157.228 244.877 155.388C265.446 153.759 276.447 127.375 259.364 120.628C242.28 113.88 237.019 127.58 235.242 133.85C242.485 122.059 249.592 130.579 247.747 135.35C245.454 141.279 237.839 145.914 217.885 140.462Z" fill="#292929"/>
<path d="M136.015 140.355C155.478 131.247 174.744 138.435 181.945 143.167C145.488 161.823 122.795 165.047 110.393 161.069C97.991 157.09 86.2699 143.167 87.7009 128.078C88.8457 116.006 100.807 111.205 106.645 110.314C112.301 109.971 123.449 111.905 122.795 122.385C122.141 132.865 114.255 132.788 110.393 131.439C126.612 124.511 95.9464 116.418 102.625 135.28C105.646 140.767 116.553 149.464 136.015 140.355Z" fill="#292929"/>
<path d="M187.313 90.4518C185.195 138.566 193.036 166.709 172.024 140.376C175.796 126.3 180.209 92.8422 187.313 90.4518Z" fill="#F0BBAC"/>
<path d="M193.832 112.067C196.043 111.292 203.939 108.913 207.78 112.301C208.047 112.53 208.056 112.914 207.827 113.181C203.501 117.888 196.351 120.046 193.48 112.9C193.36 112.545 193.504 112.18 193.832 112.067Z" fill="white"/>
<path d="M143.333 111.021C146.26 109.995 155.684 107.21 158.854 113.006C159.007 113.29 158.949 113.673 158.687 113.894C150.861 120.574 145.437 115.449 143.005 112.113C142.739 111.714 142.885 111.182 143.333 111.021Z" fill="white"/>
<path d="M147.434 109.842C147.434 109.842 146.51 115.313 146.889 115.827C147.268 116.341 150.698 117.609 151.896 117.235C153.094 116.862 156.52 111.671 155.419 110.102C154.314 108.565 147.434 109.842 147.434 109.842Z" fill="#2C1E25"/>
<path d="M197.827 110.957C197.827 110.957 203.356 110.017 204.799 110.777C206.223 112.851 205.42 115.525 204.209 116.252C202.656 117.155 199.452 117.767 199.059 117.511C198.687 117.22 196.586 113.892 197.827 110.957Z" fill="#2C1E25"/>
<path d="M166.595 112.757C166.595 121.528 158.194 130.743 149.423 130.743C140.651 130.743 134.762 121.528 134.762 112.757C134.762 103.985 140.651 98.9102 149.423 98.9102C158.194 98.9102 166.595 103.985 166.595 112.757Z" fill="#C7E6ED" fill-opacity="0.5"/>
<path d="M184.143 169.474C174.607 160.848 166.924 166.244 164.275 170.02C151.601 183.327 161.877 200.319 164.275 210.896C167.838 194.587 196.064 180.256 184.143 169.474Z" fill="#292929"/>
<path fill-rule="evenodd" clip-rule="evenodd" d="M187.333 157.169C187.656 157.937 186.525 158.739 185.24 159.439C183.941 160.146 182.342 160.928 180.063 161.127C177.845 161.32 176.216 160.581 174.097 160.409C172.085 160.245 169.554 160.606 168.034 160.148C166.468 159.676 166.521 158.818 166.336 158.068C166.137 157.261 165.528 156.373 166.927 155.661C168.322 154.952 170.966 154.691 173.308 154.525C175.279 154.386 177.074 154.635 178.919 154.813C180.614 154.978 182.251 155.146 183.591 155.521C185.197 155.971 187.023 156.433 187.333 157.169Z" fill="#DBA89A"/>
</svg>

<svg width="337" height="191" fill="none" xmlns="http://www.w3.org/2000/svg"><path d="M161.867 203.763c-1.223-.532-17.206-12.827-25.044-18.908-.079 2.405-.429 9.012-1.192 16.196 3.643 6.126 17.667 11.295 24.224 13.114 1.18-3.246 3.236-9.871 2.012-10.402z" fill="#F37A84"/><path d="M136.183 193.558c-1.364-18.418 3.695-25.201 5.968-26.433 17.243-2.748 52.582-7.219 55.993-3.126 4.263 5.116 7.39 26.148 5.116 31.833-2.274 5.684-17.622 11.937-24.728 15.064-7.105 3.126-28.138-10.801-42.349-17.338z" fill="#C4535D"/><path d="M203.606 184.86c-.571 2.515-13.673 13.737-20.153 19.033l-.59 9.633c6.38-1.224 19.287-4.124 19.878-5.928.74-2.255 1.579-25.882.865-22.738z" fill="#F37A84"/><path d="M203.546 194.126c-1.706 5.685-3.038 16.962-4.325 24.641l22.515 33.523c5.719-.93 12.946-11.164 9.243-19.429-4.63-10.33-27.563-39.723-27.433-38.735z" fill="#DB5E68"/><path d="M114.223 68.196c5.285-5.784 15.78-4.638 20.366-3.342 23.318.682 71.112 1.268 75.744-1.842 5.79-3.888 27.246-8.867 24.862 2.796-1.907 9.331-12.374 11.845-17.369 11.936l-2.657 2.933c-25.021 1.546-77.746 4.502-88.481 3.956-13.419-.682-19.073-9.207-12.465-16.437z" fill="#C4535D"/><path d="M132.307 64.293c1.808-13.412-2.535-41.902-4.932-54.47C147.307-2.152 205.8-1.194 216.622 2.364c-10 28.33-3.562 59.67-1.987 66.788-2.876 5.953-18.835 6.432-31.438 3.763-12.603-2.669-44.315-6.637-50.89-8.622z" fill="#F37A84"/><path d="M152.866 74.357c-20.603-2.603-25.243 6.576-26.061 9.796 0 15.961 0 36.238 5.799 67.338 5.799 31.1 38.886 27.333 46.254 26.305 7.368-1.027 25.379-7.74 32.951-27.88 7.573-20.14 7.709-65.763 6.55-72.75-4.162.822-44.89-.206-65.493-2.809z" fill="#FFC9BA"/><path fill-rule="evenodd" clip-rule="evenodd" d="M127.297 109.007c1.236-3.796 3.14-7.851 5.688-9.435 5.05-3.14 13.608-8.695 21.497-16.584 3.124-3.124 4.892-5.603 5.596-7.55-2.596-.241-5.03-.5-7.234-.778-20.611-2.593-25.252 6.552-26.071 9.76 0 7.134 0 15.135.524 24.587zM194.838 77.65c-2.503 2.775-3.12 10.26 4.414 14.354 1.587.863 2.988 1.601 4.233 2.257 6.143 3.239 8.488 4.475 10.645 8.731 1.192 2.353 2.847 3.572 4.32 4.148.727-14.06.469-26.324-.09-29.674-1.907.375-11.498.363-23.312-.009a1.576 1.576 0 00-.21.193z" fill="#292929"/><path d="M217.885 140.462c-15.963-4.363-30.614-.182-35.944 2.453 23.507 9.065 39.702 14.313 62.936 12.473 20.569-1.629 31.57-28.013 14.487-34.76-17.084-6.748-22.345 6.952-24.122 13.222 7.243-11.791 14.35-3.271 12.505 1.5-2.293 5.929-9.908 10.564-29.862 5.112zM136.015 140.355c19.463-9.108 38.729-1.92 45.93 2.812-36.457 18.656-59.15 21.88-71.552 17.902-12.402-3.979-24.123-17.902-22.692-32.991 1.145-12.072 13.106-16.873 18.944-17.764 5.656-.343 16.804 1.591 16.15 12.071-.654 10.48-8.54 10.403-12.402 9.054 16.219-6.928-14.447-15.021-7.768 3.841 3.021 5.487 13.928 14.184 33.39 5.075z" fill="#292929"/><path d="M187.313 90.452c-2.118 48.114 5.723 76.257-15.289 49.924 3.772-14.076 8.185-47.534 15.289-49.924z" fill="#F0BBAC"/><path d="M193.832 112.067c2.211-.775 10.107-3.154 13.948.234.267.229.276.613.047.88-4.326 4.707-11.476 6.865-14.347-.281-.12-.355.024-.72.352-.833zM143.333 111.021c2.927-1.026 12.351-3.811 15.521 1.985a.727.727 0 01-.167.888c-7.826 6.68-13.25 1.555-15.682-1.781-.266-.399-.12-.931.328-1.092z" fill="#fff"/><path d="M147.434 109.842s-.924 5.471-.545 5.985c.379.514 3.809 1.782 5.007 1.408 1.198-.373 4.624-5.564 3.523-7.133-1.105-1.537-7.985-.26-7.985-.26zM197.827 110.957s5.529-.94 6.972-.18c1.424 2.074.621 4.748-.59 5.475-1.553.903-4.757 1.515-5.15 1.259-.372-.291-2.473-3.619-1.232-6.554z" fill="#2C1E25"/><path d="M166.595 112.757c0 8.771-8.401 17.986-17.172 17.986-8.772 0-14.661-9.215-14.661-17.986 0-8.772 5.889-13.847 14.661-13.847 8.771 0 17.172 5.075 17.172 13.847z" fill="#C7E6ED" fill-opacity=".5"/><path d="M184.143 169.474c-9.536-8.626-17.219-3.23-19.868.546-12.674 13.307-2.398 30.299 0 40.876 3.563-16.309 31.789-30.64 19.868-41.422z" fill="#292929"/><path fill-rule="evenodd" clip-rule="evenodd" d="M187.333 157.169c.323.768-.808 1.57-2.093 2.27-1.299.707-2.898 1.489-5.177 1.688-2.218.193-3.847-.546-5.966-.718-2.012-.164-4.543.197-6.063-.261-1.566-.472-1.513-1.33-1.698-2.08-.199-.807-.808-1.695.591-2.407 1.395-.709 4.039-.97 6.381-1.136 1.971-.139 3.766.11 5.611.288 1.695.165 3.332.333 4.672.708 1.606.45 3.432.912 3.742 1.648z" fill="#DBA89A"/></svg>
